PortableApps/LibreOfficePortable/App/libreoffice/help/media/icon-themes/cmd/sc_dbviewaliases.svg

<svg viewBox="0 0 16 16" xmlns="http://www.w3.org/2000/svg">/&amp;amp;gt;<path d="m8 0a4 4 0 0 0 -4 4 4 4 0 0 0 4 4 4 4 0 0 0 4-4 4 4 0 0 0 -4-4zm0 1a3 3 0 0 1 3 3 3 3 0 0 1 -3 3 3 3 0 0 1 -3-3 3 3 0 0 1 3-3z" fill="#808080"/><circle cx="8" cy="4" fill="#fff" r="3"/><path d="m8 8a8 8 0 0 0 -8 8h1 14 1a8 8 0 0 0 -8-8z" fill="#808080"/><path d="m8 9a7 7 0 0 0 -6.921875 6h13.841797a7 7 0 0 0 -6.919922-6z" fill="#fff"/></svg>

<?xml version="1.0" encoding="UTF-8" standalone="no"?>
<svg
   xmlns:dc="http://purl.org/dc/elements/1.1/"
   xmlns:cc="http://creativecommons.org/ns#"
   xmlns:rdf="http://www.w3.org/1999/02/22-rdf-syntax-ns#"
   xmlns:svg="http://www.w3.org/2000/svg"
   xmlns="http://www.w3.org/2000/svg"
   xmlns:sodipodi="http://sodipodi.sourceforge.net/DTD/sodipodi-0.dtd"
   xmlns:inkscape="http://www.inkscape.org/namespaces/inkscape"
   viewBox="0 0 16 16"
   id="svg2"
   version="1.1"
   inkscape:version="0.91 r13725"
   sodipodi:docname="sc_dbviewaliases.svg"><metadata
   id="metadata14">
  <rdf:RDF>
    <cc:Work
       rdf:about="">
      <dc:format>image/svg+xml</dc:format>
      <dc:type
         rdf:resource="http://purl.org/dc/dcmitype/StillImage" />
    </cc:Work>
  </rdf:RDF>
</metadata>
<defs
   id="defs12" />
<sodipodi:namedview
   pagecolor="#ffffff"
   bordercolor="#666666"
   borderopacity="1"
   objecttolerance="10"
   gridtolerance="10"
   guidetolerance="10"
   inkscape:pageopacity="0"
   inkscape:pageshadow="2"
   inkscape:window-width="2560"
   inkscape:window-height="1375"
   id="namedview10"
   showgrid="true"
   inkscape:zoom="20.85965"
   inkscape:cx="-5.5842709"
   inkscape:cy="2.3419645"
   inkscape:window-x="0"
   inkscape:window-y="36"
   inkscape:window-maximized="1"
   inkscape:current-layer="svg2">
  <inkscape:grid
     type="xygrid"
     id="grid4142" />
</sodipodi:namedview>


     /&amp;gt;
 <path
   style="opacity:1;fill:#808080;fill-opacity:1;fill-rule:nonzero;stroke:none;stroke-width:2;stroke-linecap:round;stroke-linejoin:round;stroke-miterlimit:4;stroke-dasharray:none;stroke-opacity:1"
   d="M 8,0 A 4,4 0 0 0 4,4 4,4 0 0 0 8,8 4,4 0 0 0 12,4 4,4 0 0 0 8,0 Z M 8,1 A 3,3 0 0 1 11,4 3,3 0 0 1 8,7 3,3 0 0 1 5,4 3,3 0 0 1 8,1 Z"
   id="path4144"
   inkscape:connector-curvature="0" />
<circle
   style="opacity:1;fill:#ffffff;fill-opacity:1;fill-rule:nonzero;stroke:none;stroke-width:2;stroke-linecap:round;stroke-linejoin:round;stroke-miterlimit:4;stroke-dasharray:none;stroke-opacity:1"
   id="path4149"
   cx="8"
   cy="4"
   r="3" />
<path
   style="opacity:1;fill:#808080;fill-opacity:1;fill-rule:nonzero;stroke:none;stroke-width:2;stroke-linecap:round;stroke-linejoin:round;stroke-miterlimit:4;stroke-dasharray:none;stroke-opacity:1"
   d="M 8 8 A 8 8 0 0 0 0 16 L 1 16 L 15 16 L 16 16 A 8 8 0 0 0 8 8 z "
   id="path4151" />
<path
   style="opacity:1;fill:#ffffff;fill-opacity:1;fill-rule:nonzero;stroke:none;stroke-width:2;stroke-linecap:round;stroke-linejoin:round;stroke-miterlimit:4;stroke-dasharray:none;stroke-opacity:1"
   d="M 8 9 A 7 7 0 0 0 1.078125 15 L 14.919922 15 A 7 7 0 0 0 8 9 z "
   id="path4153" />
</svg>
